; generated by PrusaSlicer 2.8.0+win64 on 2025-06-23 at 10:48:59 UTC


;
;
; 

; external perimeters extrusion width = 0.45mm
; perimeters extrusion width = 0.45mm
; infill extrusion width = 0.45mm
; solid infill extrusion width = 0.45mm
; top infill extrusion width = 0.40mm
; support material extrusion width = 0.35mm
; first layer extrusion width = 0.42mm

; external perimeters extrusion width = 0.45mm
; perimeters extrusion width = 0.45mm
; infill extrusion width = 0.45mm
; solid infill extrusion width = 0.45mm
; top infill extrusion width = 0.40mm
; support material extrusion width = 0.35mm
; first layer extrusion width = 0.42mm

; external perimeters extrusion width = 0.45mm
; perimeters extrusion width = 0.45mm
; infill extrusion width = 0.45mm
; solid infill extrusion width = 0.45mm
; top infill extrusion width = 0.40mm
; support material extrusion width = 0.35mm
; first layer extrusion width = 0.42mm

M73 P0 R161
M73 Q0 S163
M201 X1000 Y1000 Z200 E5000 ; sets maximum accelerations, mm/sec^2
M203 X200 Y200 Z12 E120 ; sets maximum feedrates, mm / sec
M204 S1250 T1250 ; sets acceleration (S) and retract acceleration (R), mm/sec^2
M205 X8.00 Y8.00 Z0.40 E4.50 ; sets the jerk limits, mm/sec
M205 S0 T0 ; sets the minimum extruding and travel feed rate, mm/sec

; printing object SmellContainerLid.stl id:2 copy 0
; stop printing object SmellContainerLid.stl id:2 copy 0
; printing object SmellContainer.stl id:1 copy 0
; stop printing object SmellContainer.stl id:1 copy 0
; printing object Arm.stl id:0 copy 0
; stop printing object Arm.stl id:0 copy 0

;TYPE:Custom
M862.3 P "MK3S" ; printer model check
M862.1 P0.4 ; nozzle diameter check
M115 U3.14.0 ; tell printer latest fw version
G90 ; use absolute coordinates
M83 ; extruder relative mode
M104 S215 ; set extruder temp
M140 S60 ; set bed temp
M190 S60 ; wait for bed temp
M109 S215 ; wait for extruder temp
G28 W ; home all without mesh bed level
G80 X48.1278 Y43.4128 W162.676 H110.456 ; mesh bed levelling

G1 Z0.2 F720
G1 Y-3 F1000 ; go outside print area
G92 E0
G1 X60 E9 F1000 ; intro line
G1 X100 E12.5 F1000 ; intro line

G92 E0
M221 S95

; Don't change E values below. Excessive value can damage the printer.
M907 E430 ; set extruder motor current
G21 ; set units to millimeters
G90 ; use absolute coordinates
M83 ; use relative distances for extrusion

M900 K0.05 ; Filament gcode LA 1.5
M900 K30 ; Filament gcode LA 1.0




M107
;LAYER_CHANGE
;Z:0.2
;HEIGHT:0.2
G1 E-.8 F2100
M73 P0 R160
M73 Q0 S162
G1 Z.6 F720
G1 X51.805 Y63.622 F10800
G1 Z.2 F720
G1 E.8 F2100
M204 S800
;TYPE:Skirt/Brim
;WIDTH:0.42
G1 F1200
G1 X55.985 Y60.471 E.16413
G1 X56.881 Y60.071 E.03077
G1 X140.814 Y43.606 E2.68182
G1 X141.616 Y43.598 E.02515
G1 X148.337 Y44.784 E.21399
G1 X162.725 Y48.519 E.46608
G1 X163.598 Y48.976 E.0309
G1 X179.748 Y62.818 E.66691
G1 X189.21 Y72.271 E.41936
G1 X200.979 Y88.696 E.63355
G1 X201.274 Y89.276 E.0204
G1 X210.502 Y116.961 E.915
G1 X210.615 Y117.653 E.02198
G1 X210.615 Y130.618 E.40651
G1 X210.247 Y131.832 E.03977
G1 X201.019 Y145.674 E.52161
G1 X196.021 Y150.732 E.22295
G1 X195.452 Y151.142 E.02199
G1 X190.838 Y153.449 E.16174
G1 X189.859 Y153.68 E.03154
G1 X174.588 Y153.68 E.47881
G1 X174.092 Y153.624 E.01565
G1 X52.798 Y125.452 E3.90432
G1 X51.648 Y124.763 E.04203
G1 X48.86 Y121.584 E.13258
G1 X48.316 Y120.126 E.04879
G1 X48.526 Y90.351 E.9336
G1 X50.833 Y65.28 E.7894
G1 X51.465 Y63.933 E.04665
G1 X51.761 Y63.663 E.01256
M204 S1000
;WIPE_START
G1 F8640
G1 X51.805 Y63.622 E-.01389
G1 X54.523 Y61.573 E-.78611
;WIPE_END
G1 Z.6 F720
G1 X54.891 Y65.049 F10800
G1 Z.2 F720
G1 E.8 F2100
M204 S800
G1 F1200
G1 X55.489 Y64.228 E.03185
G1 X56.25 Y63.54 E.03217
G1 X57.175 Y63.01 E.03343
G1 X58.46 Y62.657 E.04178
G1 X67.006 Y63.135 E.26837
G1 X68.433 Y63.568 E.04676
G1 X69.636 Y64.387 E.04563
G1 X70.507 Y65.472 E.04362
G1 X70.891 Y66.303 E.0287
G1 X71.143 Y67.428 E.03615
G1 X70.976 Y72.521 E.15977
G1 X70.704 Y73.682 E.03739
G1 X69.973 Y74.988 E.04693
G1 X68.955 Y75.952 E.04396
G1 X67.882 Y76.495 E.03771
G1 X66.226 Y102.025 E.80216
G1 X67.338 Y102.457 E.0374
G1 X68.338 Y103.178 E.03865
G1 X69.228 Y104.288 E.04461
G1 X69.803 Y105.809 E.05098
G1 X69.872 Y106.575 E.02411
G1 X69.376 Y120.05 E.42279
G1 X68.975 Y121.116 E.03571
G1 X68.134 Y122.317 E.04597
G1 X67.476 Y122.87 E.02695
G1 X66.851 Y123.266 E.0232
G1 X65.339 Y123.728 E.04957
G1 X54.842 Y123.112 E.32969
G1 X53.465 Y122.626 E.04579
G1 X52.263 Y121.72 E.04719
G1 X51.383 Y120.483 E.0476
G1 X50.9 Y118.497 E.06408
G1 X54.306 Y66.687 E1.62797
G1 X54.871 Y65.106 E.05264
M204 S1000
G1 X54.871 Y65.106 F10800
G1 X55.225 Y65.234
M204 S800
G1 F1200
G1 X55.235 Y65.204 E.00099
G1 X55.781 Y64.468 E.02873
G1 X56.457 Y63.856 E.02859
G1 X57.302 Y63.366 E.03063
G1 X58.471 Y63.035 E.03809
G1 X66.963 Y63.51 E.26668
G1 X68.246 Y63.897 E.04202
G1 X69.361 Y64.647 E.04213
G1 X70.176 Y65.653 E.04059
G1 X70.528 Y66.408 E.02612
G1 X70.766 Y67.44 E.03321
G1 X70.6 Y72.489 E.15839
G1 X70.343 Y73.57 E.03484
G1 X69.693 Y74.734 E.0418
G1 X68.717 Y75.658 E.04214
G1 X67.52 Y76.252 E.0419
G1 X65.827 Y102.342 E.81975
G1 X67.14 Y102.778 E.04338
G1 X68.062 Y103.436 E.03552
G1 X68.887 Y104.452 E.04104
G1 X69.43 Y105.87 E.04761
G1 X69.495 Y106.574 E.02217
G1 X69.001 Y120.005 E.4214
G1 X68.652 Y120.92 E.03071
G1 X67.872 Y122.045 E.04292
G1 X67.243 Y122.572 E.02573
G1 X66.672 Y122.933 E.02118
G1 X65.263 Y123.357 E.04614
G1 X54.892 Y122.737 E.32576
G1 X53.619 Y122.281 E.0424
G1 X52.542 Y121.465 E.04237
G1 X51.72 Y120.311 E.04442
G1 X51.279 Y118.493 E.05866
G1 X54.68 Y66.739 E1.62621
G1 X55.204 Y65.29 E.04831
M204 S1000
G1 X55.204 Y65.29 F10800
G1 X55.558 Y65.42
M204 S800
G1 F1200
G1 X55.58 Y65.361 E.00197
G1 X56.048 Y64.734 E.02453
G1 X56.664 Y64.172 E.02614
G1 X57.47 Y63.705 E.02921
G1 X58.542 Y63.406 E.03489
G1 X66.918 Y63.885 E.26305
G1 X68.109 Y64.249 E.03905
G1 X69.087 Y64.907 E.03696
G1 X69.845 Y65.835 E.03757
G1 X70.166 Y66.515 E.02358
G1 X70.388 Y67.454 E.03025
G1 X70.224 Y72.457 E.15695
G1 X69.982 Y73.456 E.03223
G1 X69.413 Y74.48 E.03673
G1 X68.479 Y75.364 E.04032
G1 X67.162 Y75.95 E.0452
G1 X65.427 Y102.686 E.84005
G1 X66.002 Y102.748 E.01813
G1 X66.983 Y103.122 E.03292
G1 X67.787 Y103.695 E.03096
G1 X68.546 Y104.618 E.03747
G1 X69.057 Y105.932 E.04421
G1 X69.118 Y106.573 E.02019
G1 X68.637 Y119.902 E.41819
G1 X68.328 Y120.726 E.02759
G1 X67.61 Y121.773 E.03981
G1 X66.494 Y122.6 E.04355
G1 X65.188 Y122.986 E.0427
G1 X54.941 Y122.362 E.32188
G1 X53.823 Y121.962 E.03723
G1 X52.82 Y121.209 E.03932
G1 X52.057 Y120.141 E.04115
G1 X51.657 Y118.49 E.05326
G1 X55.055 Y66.791 E1.62448
G1 X55.537 Y65.476 E.04391
M204 S1000
G1 X55.537 Y65.476 F10800
G1 X55.89 Y65.608
M204 S800
G1 F1200
G1 X55.923 Y65.519 E.00298
G1 X56.316 Y65 E.02041
G1 X56.871 Y64.487 E.0237
G1 X57.637 Y64.044 E.02774
G1 X58.611 Y63.778 E.03166
G1 X66.874 Y64.26 E.25952
G1 X67.925 Y64.579 E.03444
G1 X68.815 Y65.169 E.03348
G1 X69.515 Y66.019 E.03453
G1 X69.805 Y66.624 E.02104
G1 X70.01 Y67.468 E.02723
G1 X69.848 Y72.425 E.15551
G1 X69.622 Y73.342 E.02961
G1 X69.133 Y74.226 E.03168
G1 X68.241 Y75.07 E.0385
G1 X67.269 Y75.535 E.03378
G1 X66.804 Y75.638 E.01493
G1 X65.027 Y103.031 E.86069
G1 X65.894 Y103.11 E.0273
G1 X66.825 Y103.465 E.03124
G1 X67.547 Y103.986 E.02792
G1 X68.207 Y104.784 E.03247
G1 X68.684 Y105.995 E.04081
G1 X68.741 Y106.572 E.01818
G1 X68.272 Y119.8 E.41502
G1 X68.002 Y120.535 E.02455
G1 X67.347 Y121.501 E.03659
G1 X66.317 Y122.266 E.04023
G1 X65.115 Y122.615 E.03924
G1 X54.992 Y121.988 E.31801
G1 X53.979 Y121.618 E.03381
G1 X53.098 Y120.954 E.03459
G1 X52.395 Y119.97 E.03792
G1 X52.035 Y118.486 E.04788
G1 X55.429 Y66.843 E1.62272
G1 X55.869 Y65.664 E.03946
M204 S1000
G1 X55.869 Y65.664 F10800
G1 X56.22 Y65.797
M204 S800
G1 F1200
G1 X56.265 Y65.68 E.00393
G1 X56.585 Y65.265 E.01643
G1 X57.079 Y64.803 E.02121
G1 X57.804 Y64.383 E.02627
G1 X58.678 Y64.15 E.02836
G1 X66.83 Y64.635 E.25605
G1 X67.742 Y64.91 E.02987
G1 X68.544 Y65.433 E.03002
G1 X69.187 Y66.205 E.0315
G1 X69.444 Y66.737 E.01852
G1 X69.632 Y67.482 E.02409
G1 X69.471 Y72.392 E.15403
G1 X69.263 Y73.226 E.02695
G1 X68.852 Y73.972 E.02671
G1 X68.005 Y74.775 E.03659
G1 X67.131 Y75.184 E.03026
G1 X66.447 Y75.325 E.0219
G1 X64.626 Y103.379 E.88146
G1 X65.785 Y103.472 E.03646
G1 X66.666 Y103.808 E.02956
G1 X67.305 Y104.277 E.02485
G1 X67.868 Y104.953 E.02758
G1 X68.312 Y106.06 E.0374
G1 X68.363 Y106.572 E.01613
G1 X67.908 Y119.701 E.4119
G1 X67.676 Y120.345 E.02146
G1 X67.084 Y121.23 E.03338
G1 X66.142 Y121.931 E.03682
G1 X65.043 Y122.244 E.03583
G1 X55.093 Y121.624 E.31258
G1 X54.181 Y121.298 E.03037
M73 Q0 S161
G1 X53.376 Y120.698 E.03148
G1 X52.733 Y119.801 E.0346
G1 X52.413 Y118.482 E.04256
G1 X55.804 Y66.897 E1.6209
G1 X56.199 Y65.853 E.035
M73 P0 R159
M204 S1000
G1 X56.199 Y65.853 F10800
G1 X56.55 Y65.989
M204 S800
G1 F1200
G1 X56.606 Y65.844 E.00487
G1 X57.288 Y65.118 E.03123
G1 X57.97 Y64.722 E.02473
G1 X58.743 Y64.523 E.02503
G1 X66.784 Y65.01 E.25258
G1 X67.604 Y65.262 E.0269
G1 X68.311 Y65.73 E.02658
G1 X68.88 Y66.426 E.02819
G1 X69.085 Y66.85 E.01477
G1 X69.255 Y67.498 E.02101
G1 X69.095 Y72.36 E.15253
G1 X68.919 Y73.07 E.02294
G1 X68.568 Y73.722 E.02322
G1 X67.816 Y74.447 E.03275
G1 X66.993 Y74.832 E.02849
G1 X66.095 Y74.926 E.02831
G1 X64.226 Y103.73 E.90503
G1 X65.677 Y103.835 E.04561
G1 X66.507 Y104.151 E.02785
G1 X67.062 Y104.565 E.02171
G1 X67.531 Y105.123 E.02285
G1 X67.94 Y106.126 E.03396
G1 X67.986 Y106.572 E.01406
G1 X67.542 Y119.604 E.40885
G1 X67.347 Y120.158 E.01841
G1 X66.82 Y120.959 E.03006
G1 X65.968 Y121.595 E.03334
G1 X64.973 Y121.872 E.03238
G1 X55.145 Y121.249 E.30877
G1 X54.337 Y120.954 E.02697
G1 X53.654 Y120.442 E.02676
G1 X53.071 Y119.633 E.03127
G1 X52.791 Y118.478 E.03726
G1 X56.178 Y66.95 E1.61911
G1 X56.528 Y66.045 E.03042
M204 S1000
G1 X56.528 Y66.045 F10800
G1 X56.872 Y66.178
M204 S800
G1 F1200
G1 X56.92 Y66.053 E.0042
G1 X57.531 Y65.407 E.02788
G1 X58.133 Y65.063 E.02174
G1 X58.805 Y64.896 E.02171
G1 X66.739 Y65.385 E.24924
G1 X67.419 Y65.592 E.02229
G1 X68.077 Y66.028 E.02475
G1 X68.572 Y66.644 E.02478
G1 X68.726 Y66.967 E.01122
G1 X68.877 Y67.516 E.01785
G1 X68.719 Y72.327 E.15093
G1 X68.56 Y72.953 E.02025
G1 X68.252 Y73.514 E.02007
G1 X67.58 Y74.151 E.02903
G1 X66.899 Y74.466 E.02353
G1 X66.431 Y74.558 E.01495
G1 X65.743 Y74.53 E.02159
G1 X63.825 Y104.079 E.92844
G1 X65.622 Y104.209 E.05649
G1 X66.302 Y104.469 E.02283
G1 X66.818 Y104.854 E.02019
G1 X67.222 Y105.341 E.01984
G1 X67.568 Y106.193 E.02883
G1 X67.609 Y106.573 E.01198
G1 X67.177 Y119.509 E.40583
G1 X67.018 Y119.974 E.01541
G1 X66.555 Y120.688 E.02668
G1 X65.796 Y121.259 E.02978
G1 X64.905 Y121.5 E.02894
G1 X55.246 Y120.885 E.30346
G1 X54.537 Y120.633 E.02359
G1 X53.932 Y120.186 E.02359
G1 X53.41 Y119.466 E.02788
G1 X53.169 Y118.474 E.03201
G1 X56.552 Y67.004 E1.61729
G1 X56.85 Y66.234 E.02589
M204 S1000
G1 X56.85 Y66.234 F10800
G1 X57.194 Y66.367
M204 S800
G1 F1200
G1 X57.235 Y66.262 E.00353
G1 X57.772 Y65.698 E.02442
G1 X58.293 Y65.406 E.01873
G1 X58.864 Y65.269 E.01841
G1 X66.694 Y65.76 E.24599
G1 X67.234 Y65.922 E.01768
G1 X67.843 Y66.325 E.0229
G1 X68.261 Y66.858 E.02124
G1 X68.499 Y67.535 E.0225
G1 X68.343 Y72.294 E.1493
G1 X68.217 Y72.793 E.01614
G1 X67.937 Y73.306 E.01832
G1 X67.347 Y73.853 E.02523
G1 X66.805 Y74.1 E.01868
G1 X66.383 Y74.183 E.01349
G1 X65.391 Y74.133 E.03114
G1 X63.425 Y104.428 E.95188
G1 X65.567 Y104.583 E.06734
G1 X66.1 Y104.788 E.01791
G1 X66.543 Y105.113 E.01723
G1 X66.913 Y105.559 E.01817
G1 X67.196 Y106.261 E.02373
G1 X67.231 Y106.575 E.00991
G1 X66.81 Y119.417 E.40287
G1 X66.686 Y119.794 E.01244
G1 X66.29 Y120.419 E.0232
G1 X65.626 Y120.921 E.0261
G1 X64.839 Y121.128 E.02552
G1 X55.347 Y120.521 E.29822
G1 X54.69 Y120.288 E.02186
G1 X54.21 Y119.93 E.01878
G1 X53.75 Y119.3 E.02446
G1 X53.548 Y118.47 E.02678
G1 X56.927 Y67.057 E1.6155
G1 X57.173 Y66.423 E.02132
M204 S1000
G1 X57.173 Y66.423 F10800
G1 X57.517 Y66.558
M204 S800
G1 F1200
G1 X57.552 Y66.468 E.00303
G1 X58.015 Y65.987 E.02093
G1 X58.407 Y65.766 E.01411
G1 X58.925 Y65.642 E.0167
G1 X66.65 Y66.135 E.2427
G1 X67.054 Y66.254 E.01321
G1 X67.568 Y66.585 E.01917
G1 X67.931 Y67.042 E.0183
G1 X68.128 Y67.611 E.01888
G1 X67.967 Y72.26 E.14585
G1 X67.859 Y72.673 E.01338
G1 X67.624 Y73.093 E.01509
G1 X67.118 Y73.552 E.02142
G1 X66.338 Y73.808 E.02574
G1 X65.039 Y73.733 E.0408
G1 X63.024 Y104.777 E.97541
G1 X65.509 Y104.957 E.07812
G1 X65.936 Y105.128 E.01442
G1 X66.268 Y105.371 E.0129
G1 X66.604 Y105.777 E.01652
G1 X66.825 Y106.33 E.01867
G1 X66.443 Y119.33 E.40778
G1 X66.023 Y120.15 E.02889
G1 X65.46 Y120.581 E.02223
G1 X64.776 Y120.755 E.02213
G1 X55.4 Y120.146 E.2946
G1 X54.847 Y119.944 E.01846
G1 X54.488 Y119.674 E.01408
G1 X54.091 Y119.137 E.02094
G1 X53.926 Y118.465 E.0217
G1 X57.301 Y67.111 E1.61364
G1 X57.495 Y66.614 E.01673
M204 S1000
G1 X57.495 Y66.614 F10800
G1 X57.839 Y66.749
M204 S800
G1 F1200
G1 X57.87 Y66.671 E.00263
G1 X58.258 Y66.276 E.01736
G1 X58.521 Y66.127 E.00948
G1 X58.985 Y66.016 E.01496
G1 X66.606 Y66.51 E.23945
G1 X67.296 Y66.848 E.02409
G1 X67.603 Y67.229 E.01534
G1 X67.757 Y67.686 E.01512
G1 X67.59 Y72.227 E.14248
G1 X67.518 Y72.51 E.00916
G1 X67.31 Y72.883 E.01339
G1 X66.939 Y73.219 E.01569
G1 X66.547 Y73.39 E.01341
G1 X66.298 Y73.433 E.00792
G1 X64.687 Y73.333 E.05061
G1 X62.623 Y105.126 E.99895
G1 X65.449 Y105.331 E.08884
M73 P1 R159
G1 X65.992 Y105.63 E.01944
G1 X66.294 Y105.994 E.01483
G1 X66.454 Y106.401 E.01371
G1 X66.074 Y119.247 E.40295
G1 X65.756 Y119.883 E.0223
M73 Q1 S161
G1 X65.296 Y120.241 E.01828
G1 X64.77 Y120.377 E.01703
G1 X55.454 Y119.772 E.29271
G1 X55.008 Y119.602 E.01497
G1 X54.767 Y119.419 E.00949
G1 X54.433 Y118.977 E.01737
G1 X54.304 Y118.461 E.01668
G1 X57.675 Y67.165 E1.61182
G1 X57.817 Y66.805 E.01213
M204 S1000
G1 X57.817 Y66.805 F10800
G1 X58.161 Y66.944
M204 S800
G1 F1200
G1 X58.192 Y66.868 E.00257
G1 X58.502 Y66.565 E.01359
G1 X58.992 Y66.394 E.01627
G1 X66.563 Y66.885 E.23788
G1 X67.027 Y67.114 E.01622
G1 X67.28 Y67.424 E.01255
G1 X67.386 Y67.761 E.01108
G1 X67.176 Y72.349 E.144
G1 X66.996 Y72.672 E.01159
G1 X66.76 Y72.886 E.00999
G1 X66.421 Y73.034 E.0116
G1 X64.335 Y72.932 E.06548
G1 X62.223 Y105.477 E1.02257
G1 X65.331 Y105.69 E.09768
G1 X65.722 Y105.894 E.01383
G1 X65.958 Y106.167 E.01131
G1 X66.084 Y106.478 E.01052
G1 X65.704 Y119.171 E.39816
G1 X65.486 Y119.617 E.01557
G1 X65.139 Y119.898 E.014
G1 X64.763 Y119.998 E.0122
G1 X55.51 Y119.398 E.29073
G1 X55.046 Y119.165 E.01628
G1 X54.777 Y118.823 E.01364
G1 X54.682 Y118.455 E.01192
G1 X58.05 Y67.221 E1.60987
G1 X58.139 Y67 E.00747
M204 S1000
G1 X58.139 Y67 F10800
G1 X58.481 Y67.148
M204 S800
G1 F1200
G1 X58.514 Y67.073 E.00257
G1 X58.745 Y66.854 E.00998
G1 X59.002 Y66.773 E.00845
G1 X66.521 Y67.261 E.23625
G1 X66.76 Y67.383 E.00841
G1 X66.952 Y67.619 E.00954
G1 X67.015 Y67.835 E.00705
G1 X66.838 Y72.166 E.13591
G1 X66.716 Y72.416 E.00872
G1 X66.272 Y72.679 E.01618
G1 X63.983 Y72.531 E.07192
G1 X61.822 Y105.83 E1.04626
G1 X65.213 Y106.05 E.10655
G1 X65.456 Y106.161 E.00838
G1 X65.717 Y106.564 E.01505
G1 X65.333 Y119.106 E.39343
G1 X65.213 Y119.354 E.00864
G1 X64.974 Y119.554 E.00977
G1 X64.752 Y119.62 E.00726
G1 X55.569 Y119.024 E.28853
G1 X55.324 Y118.91 E.00847
G1 X55.123 Y118.662 E.01001
G1 X55.061 Y118.444 E.00711
G1 X58.424 Y67.281 E1.60764
G1 X58.457 Y67.203 E.00266
M204 S1000
G1 X58.457 Y67.203 F10800
G1 X58.797 Y67.347
M204 S800
G1 F1200
G1 X59.02 Y67.152 E.00929
G1 X66.441 Y67.633 E.23317
G1 X66.636 Y67.854 E.00924
G1 X66.431 Y72.166 E.13535
G1 X66.239 Y72.299 E.00732
G1 X63.631 Y72.13 E.08194
G1 X61.421 Y106.182 E1.06992
G1 X65.148 Y106.423 E.1171
G1 X65.343 Y106.638 E.0091
G1 X64.958 Y119.037 E.38895
G1 X64.734 Y119.241 E.0095
G1 X55.635 Y118.65 E.28589
G1 X55.44 Y118.427 E.00929
G1 X58.793 Y67.407 E1.60315
M204 S1000
;WIPE_START
G1 F8640
G1 X58.797 Y67.347 E-.01388
G1 X59.02 Y67.152 E-.0684
G1 X62.122 Y67.353 E-.71772
;WIPE_END
G1 Z.6 F720
G1 X119.544 Y106.255 F10800
G1 Z.2 F720
G1 E.8 F2100
M204 S800
G1 F1200
G1 X120.507 Y105.145 E.04608
G1 X121.313 Y104.588 E.03072
G1 X122.254 Y104.18 E.03216
